X: 1083
T: The Gol-ding, the Tune of a new Theater Song.
%R: air, march
B: Henry Playford "Apollo's Banquet", London 1687 (5th Edition)
F: https://archive.org/details/apollosbanquetco01rugg
Z: 2017 John Chambers <jc:trillian.mit.edu>
M: C|
L: 1/8
K: F
% - - - - - - - - - -
F |\
D2F2 F2D2 | F6 zE | D2G2 G2D2 | G6 A2 |\
B2(AB) (cB)(AG) | A4 ^F4 | B3A G2A2 | B6 c2 | A2F2 F2D2 | F6 F2 |
G2(AB) (cB)(AG) | f6 f2 | g3G (GA)(BG) | A4 ^F4 | B3A G4 |\
g4 d4- | d8 | (ed)(cB) c2d2 |  ^F2D2 ^F4 | D2G2 (A3B) | G6 |]
% - - - - - - - - - -

%%sep 1 1 500
%%sep 1 1 500

